X:036
T:John of Paris
M:6/8
L:1/8
K:G
B2 B BAB | d2 B BAB | c2 e g2 e | d2 B BAB | 
c2 A AGA | B2 G G2 B | A2 B A2 B | A2 d d2 c | 
B2 B BAB | d2 B BAB | c2 e g2 e | d2 B BAB | 
c2 A AGA | B2 G G2 F | E2 e d2 c | B2 A G3 || 
d2 c Bcd | e2 f g2 a | b2 a gfe | d2 c Bcd | 
e2 e ecA | d2 d dBG | c2 A B2 G | FGA D3 | 
B2 B BAB | d2 B BAB | c2 e g2 e | d2 B BAB | 
c2 A AGA | B2 G G2 F | E2 e d2 c | B2 A G3 || 

